X: 1398
T: The Man Of The House
M:C|
L:1/8
N:"collected by O'Reilly"
B:O'Neill's 1398
Z:"Transcribed by Bob Safranek, rjs@gsp.org"
K:Em
D | E2 BE GABG | E2 BE FDAD | E2 BE GABc | dBcA BE E :|
e | efge  fgaf | gfed  edBd | efge  fgaf | gfed Beed |
    efge  fgaf | gfed  efga | bgaf  gfed | eBBA GE E ||


